X:1
T:Maggie Lauder
B:Source; 101 Scottish Songs Selected by Norman Buchan.Collins, Glasgow and London, 1962, reprinted 1970.
N:Attributed to Francis Sempill
F:http://www.folkinfo.org/songs
M:4/4
K:A
A2 A3/A/ A3/B Ac|B3/c/ d/c/B/A/ G2w B3/d/|
w:Wha wad na be in love Wi bon-nie Ma_ggi-e Lau-der? A
cAAE A3/B/ Ac|e3/f/ ed c2 e3/c/|
w:pi-per met her gaun tae Fife, An' spier'd what was't they ca'd her. Right 
d3/e/ df c3/d/ ce|B3/c/ d/c/B/A/ G2 BF/G/|
w:scorn-ful-ly she ans-wered him "Be-gone ye hal-*an-*sha-ker. Jog_ 
AEFC DC B,3/d/|ce B3/c/ A A |]
w:on your gait, ye bla-ther-skate, My name is Mag-gie Lau-der."